X: 82
T:Humors of Ballyheige (#278)
M:4/4
L:1/8
S:Rice-Walsh manuscript
R:Reel
K:G
AF|D2 GA BdAc|BdAF GFGE|D2 DE FEFG|ABcA dcAc|
BcBA G2 gf|gbag fefd|defd cAFA|BcBA G2||
ga|bggg dggg|bggg gfgb|afff dfff|afff fefa|
bggb affa|gddg fdcf|gbag fdcA|BcBA G2||

